packages/foundations/assets/icons/functional/images/transportation/bus_16_inverted.svg

<svg width="16" height="16" viewBox="0 0 16 16" fill="none" xmlns="http://www.w3.org/2000/svg">
<g clip-path="url(#clip0_2214_6690)">
<path fill-rule="evenodd" clip-rule="evenodd" d="M10.7489 1.66C11.5018 1.66 11.8939 1.73571 12.3022 1.95408C12.6814 2.1569 12.9831 2.4586 13.1859 2.83784C13.3557 3.15535 13.4393 3.46304 13.468 3.93823L14.24 3.94V7.14L13.48 7.1392V11.7144C13.48 12.0888 13.4432 12.3262 13.3408 12.554C13.2384 12.7818 13.0087 13.0767 12.8 13.1784V14.34H10.8V13.42H5.19921L5.20001 14.34H3.20001L3.19879 13.1805C2.99154 13.0498 2.82391 12.8696 2.70723 12.6514C2.5855 12.4238 2.53346 12.2047 2.52235 11.8669C2.51494 11.6417 2.51416 10.0658 2.52001 7.1392L1.76001 7.14V3.94L2.53198 3.93823C2.56073 3.46304 2.64428 3.15535 2.81408 2.83784C3.0169 2.4586 3.3186 2.1569 3.69785 1.95408C4.07212 1.75391 4.43275 1.67361 5.07019 1.66162L10.7489 1.66ZM4.68001 10.54C4.23818 10.54 3.88001 10.8982 3.88001 11.34C3.88001 11.7818 4.23818 12.14 4.68001 12.14C5.12184 12.14 5.48001 11.7818 5.48001 11.34C5.48001 10.8982 5.12184 10.54 4.68001 10.54ZM11.2348 10.54C10.793 10.54 10.4348 10.8982 10.4348 11.34C10.4348 11.7818 10.793 12.14 11.2348 12.14C11.6767 12.14 12.0348 11.7818 12.0348 11.34C12.0348 10.8982 11.6767 10.54 11.2348 10.54ZM12.12 4.5392H3.88001L3.88081 9.24553C5.25388 9.4517 6.62694 9.55478 8.00001 9.55478C9.37334 9.55478 10.7467 9.45166 12.12 9.24541V4.5392ZM10.4 2.54H5.60001V3.74H10.4V2.54Z" fill="#1A1C1F"/>
</g>
<defs>
<clipPath id="clip0_2214_6690">
<rect width="16" height="16" fill="white"/>
</clipPath>
</defs>
</svg>

<svg xmlns="http://www.w3.org/2000/svg" width="16" height="16" fill="none"><g clip-path="url(#a)"><path fill="#1A1C1F" fill-rule="evenodd" d="M10.749 1.66c.753 0 1.145.076 1.553.294.38.203.681.505.884.884.17.317.253.625.282 1.1l.772.002v3.2h-.76v4.574c0 .375-.037.612-.14.84-.102.228-.331.523-.54.624v1.162h-2v-.92H5.2v.92h-2l-.001-1.16a1.4 1.4 0 0 1-.492-.529c-.121-.227-.174-.446-.185-.784a417 417 0 0 1-.002-4.728l-.76.001v-3.2l.772-.002c.029-.475.112-.783.282-1.1.203-.38.505-.681.884-.884.374-.2.735-.28 1.372-.292zM4.68 10.54a.8.8 0 1 0 0 1.6.8.8 0 0 0 0-1.6m6.555 0a.8.8 0 1 0 0 1.6.8.8 0 0 0 0-1.6m.885-6H3.88v4.706q2.06.309 4.12.309t4.12-.31zm-1.72-2H5.6v1.2h4.8z" clip-rule="evenodd"/></g><defs><clipPath id="a"><path fill="#fff" d="M0 0h16v16H0z"/></clipPath></defs></svg>
